TV/Source/Relax HD.svg

<svg height="24.750002pt" viewBox="0 0 120.92406 24.750002" width="120.92406pt" xmlns="http://www.w3.org/2000/svg" xmlns:xlink="http://www.w3.org/1999/xlink"><clipPath id="a"><path d="m0 6.5599514h27.999793v-6.5599514h-27.999793z"/></clipPath><clipPath id="b"><path d="m0 6.5599514h27.999793v-6.5599514h-27.999793z"/></clipPath><clipPath id="c"><path d="m0 6.5599514h27.999793v-6.5599514h-27.999793z"/></clipPath><clipPath id="d"><path d="m0 6.5599514h27.999793v-6.5599514h-27.999793z"/></clipPath><clipPath id="e"><path d="m0 6.5599514h27.999793v-6.5599514h-27.999793z"/></clipPath><clipPath id="f"><path d="m0 6.5599514h27.999793v-6.5599514h-27.999793z"/></clipPath><clipPath id="g"><path d="m0 6.5599514h27.999793v-6.5599514h-27.999793z"/></clipPath><clipPath id="h"><path d="m0 6.5599514h27.999793v-6.5599514h-27.999793z"/></clipPath><g fill="#c9e400"><path clip-path="url(#a)" d="m13.279902 5.4399597-.08-.079999v-5.27996129l-.079999-.07999941h-1.119992l-.159999.07999941v6.39995259l.159999.079999h4.159969l.08-.079999v-.9599929l-.08-.079999z" transform="matrix(3.6021992 0 0 3.6021992 -1.169617 .637733)"/><path clip-path="url(#b)" d="m20.079851 3.9999704h-1.519988l-.159999-.0799994.879993-2.2399834h.08l.879993 2.2399834zm-.159999-3.9999704h-1.199991l-.08.07999941-2.159984 5.43995969v.9599929l.08.079999h.799994l.159999-.079999.399997-1.2799905.239998-.079999h2.319983l.159999.079999.479997 1.2799905.08.079999h.879993l.08-.079999v-.9599929l-2.159985-5.43995969z" transform="matrix(3.6032282 0 0 3.6032282 -.912719 .638346)"/><path d="m106.55029 0s-.0539.006-.14209.006c-.04.005-.1067.009-.16406.0132-.0667.009-.13669.0262-.2168.0395-.1549.0267-.32458.10696-.49951.19776-.1736.0935-.34409.22211-.49366.36767-.14554.1509-.27325.32007-.37207.49365-.0934.17493-.16143.34902-.19482.50391-.0267.0801-.0263.14564-.0395.2124-.01.0668-.0132.12-.0132.16407-.005.0935-.004.14502-.004.14502v6.53027 5.68067.004s-.0006.0543.004.14648c0 .0534.009.0934.0132.16554.009.0668.0129.13628.0395.2124.0267.15489.10701.32363.19776.5039.0934.16959.22211.33983.36767.49072.15089.1509.32005.27325.49366.37208.17359.0935.34911.15997.50536.19336.0801.0267.14564.0276.21241.041.0667.0134.12006.0132.16406.0132.0936.005.14502.004.14502.004h7.88672 4.32422.004s.0402.0006.10693-.004c.0267 0 .08.00061.12012-.004.04-.009.0934-.0145.15088-.0278.22568-.0401.51877-.14044.77783-.30468.25372-.16024.4708-.38593.59766-.57422.13353-.18427.19482-.32519.19482-.32519s.10676-.21176.15088-.44678c.0267-.10682.0393-.23082.0527-.31494.005-.0935.004-.14649.004-.14649v-.004-.0132-11.2456-.94629-.004-.0937c-.005-.0668-.0131-.15112-.0264-.25927-.04-.21232-.12042-.491-.27393-.73536-.14556-.24437-.34444-.45667-.51269-.58887-.0801-.0668-.15925-.11964-.21533-.14502-.0534-.0267-.0806-.0527-.0806-.0527v-.006s-.0804-.0535-.24462-.10693c-.16425-.0668-.42927-.15088-.79248-.15088h-12.22413zm-1.01367 4.63184h1.75488v2.84179h3.104v-2.84179h1.75489v7.23779h-1.75489v-2.84765h-3.104v2.84765h-1.75488zm7.54248.006h3.00732c2.15212 0 3.71191 1.57141 3.71191 3.61524 0 2.04381-1.55979 3.61669-3.71191 3.61669h-3.00732zm1.75927 1.54834v4.13525h1.09571c1.23211 0 2.04492-.86883 2.04492-2.06835 0-1.21116-.81281-2.0669-2.04492-2.0669z"/><path clip-path="url(#d)" d="m3.1999763 2.7999793h-1.759987l-.1599988-.0799994v-1.5199888l.1599988-.079999h1.759987c.5599958 0 .8799935.1599988.8799935.8799935 0 .6399952-.3199977.7999941-.8799935.7999937zm2.2399834-.7999941c0-1.35998994-.9599929-1.9999852-2.2399834-1.9999852h-3.11997689l-.07999941.07999941v6.39995259l.07999941.079999h1.11999169l.0799994-.079999v-2.4799816l.1599988-.0799994h.8799935l.2399982.0799994 1.8399864 2.4799816.1599988.0799994h.5599959l.0799994-.0799994v-.9599929l-1.1999911-1.5999881v-.0799994c.799994-.1599989 1.4399893-.8799935 1.4399893-1.8399864" transform="matrix(3.6026563 0 0 3.6026563 -.009537 .639906)"/><path clip-path="url(#f)" d="m8.8799342 3.2799757c0-.4799964-.399997-.8799935-.9599929-.8799935-.4799964 0-.8799934.3999971-.8799934.8799935s.399997.8799935.8799934.8799935c.5599959 0 .9599929-.3999971.9599929-.8799935z" transform="matrix(3.701874 0 0 3.701874 61.441126 .232944)"/><path clip-path="url(#c)" d="m8.8799342 3.2799757c0-.4799964-.399997-.8799935-.9599929-.8799935-.4799964 0-.8799934.3999971-.8799934.8799935s.399997.8799935.8799934.8799935c.5599959 0 .9599929-.3999971.9599929-.8799935z" transform="matrix(3.701874 0 0 3.701874 54.808501 9.35032)"/><path clip-path="url(#e)" d="m8.8799342 3.2799757c0-.4799964-.399997-.8799935-.9599929-.8799935-.4799964 0-.8799934.3999971-.8799934.8799935s.399997.8799935.8799934.8799935c.5599959 0 .9599929-.3999971.9599929-.8799935z" transform="matrix(3.701874 0 0 3.701874 68.073751 9.35032)"/><path clip-path="url(#g)" d="m8.8799342 3.2799757c0-.4799964-.399997-.8799935-.9599929-.8799935-.4799964 0-.8799934.3999971-.8799934.8799935s.399997.8799935.8799934.8799935c.5599959 0 .9599929-.3999971.9599929-.8799935z" transform="matrix(3.701874 0 0 3.701874 54.808501 -8.884432)"/><path clip-path="url(#h)" d="m8.8799342 3.2799757c0-.4799964-.399997-.8799935-.9599929-.8799935-.4799964 0-.8799934.3999971-.8799934.8799935s.399997.8799935.8799934.8799935c.5599959 0 .9599929-.3999971.9599929-.8799935z" transform="matrix(3.701874 0 0 3.701874 68.073751 -8.884432)"/><path d="m22.783732.64275634-.577148.287109v23.05371166l.577148.288574h4.034179 11.655763l.287109-.288574v-3.457031l-.287109-.288575h-11.080079l-.287109-.288574v-5.519532l.282715-.284179h10.394531l.287109-.288574v-3.457032l-.287109-.288574h-10.394531l-.282715-.2841787v-4.863281l.287109-.28711h11.080079l.287109-.288574v-3.45849696l-.287109-.287109h-11.655763z"/></g></svg>

<?xml version="1.0" encoding="UTF-8" standalone="no"?>
<svg
   xmlns:dc="http://purl.org/dc/elements/1.1/"
   xmlns:cc="http://creativecommons.org/ns#"
   xmlns:rdf="http://www.w3.org/1999/02/22-rdf-syntax-ns#"
   xmlns:svg="http://www.w3.org/2000/svg"
   xmlns="http://www.w3.org/2000/svg"
   xmlns:sodipodi="http://sodipodi.sourceforge.net/DTD/sodipodi-0.dtd"
   xmlns:inkscape="http://www.inkscape.org/namespaces/inkscape"
   width="120.92406pt"
   height="24.750002pt"
   viewBox="0 0 120.92406 24.750002"
   version="1.1"
   id="svg22"
   sodipodi:docname="Relax HD.svg"
   inkscape:version="0.92.0 r15299">
  <metadata
     id="metadata28">
    <rdf:RDF>
      <cc:Work
         rdf:about="">
        <dc:format>image/svg+xml</dc:format>
        <dc:type
           rdf:resource="http://purl.org/dc/dcmitype/StillImage" />
        <dc:title />
      </cc:Work>
    </rdf:RDF>
  </metadata>
  <defs
     id="defs26">
    <clipPath
       id="clipEmfPath1"
       clipPathUnits="userSpaceOnUse">
      <path
         id="path4530"
         d="  M 0,6.5599514   L 27.999793,6.5599514   L 27.999793,0   L 0,0   z" />
    </clipPath>
    <pattern
       y="0"
       x="0"
       height="6"
       width="6"
       patternUnits="userSpaceOnUse"
       id="EMFhbasepattern" />
    <clipPath
       id="clipEmfPath1-1"
       clipPathUnits="userSpaceOnUse">
      <path
         inkscape:connector-curvature="0"
         id="path4530-8"
         d="M 0,6.5599514 H 27.999793 V 0 H 0 Z" />
    </clipPath>
    <clipPath
       id="clipEmfPath1-4"
       clipPathUnits="userSpaceOnUse">
      <path
         inkscape:connector-curvature="0"
         id="path4530-7"
         d="M 0,6.5599514 H 27.999793 V 0 H 0 Z" />
    </clipPath>
    <clipPath
       id="clipEmfPath1-6"
       clipPathUnits="userSpaceOnUse">
      <path
         inkscape:connector-curvature="0"
         id="path4530-4"
         d="M 0,6.5599514 H 27.999793 V 0 H 0 Z" />
    </clipPath>
    <clipPath
       id="clipEmfPath1-4-4"
       clipPathUnits="userSpaceOnUse">
      <path
         inkscape:connector-curvature="0"
         id="path4530-7-0"
         d="M 0,6.5599514 H 27.999793 V 0 H 0 Z" />
    </clipPath>
    <clipPath
       id="clipEmfPath1-4-2"
       clipPathUnits="userSpaceOnUse">
      <path
         inkscape:connector-curvature="0"
         id="path4530-7-05"
         d="M 0,6.5599514 H 27.999793 V 0 H 0 Z" />
    </clipPath>
    <clipPath
       id="clipEmfPath1-4-5"
       clipPathUnits="userSpaceOnUse">
      <path
         inkscape:connector-curvature="0"
         id="path4530-7-2"
         d="M 0,6.5599514 H 27.999793 V 0 H 0 Z" />
    </clipPath>
    <clipPath
       id="clipEmfPath1-4-9"
       clipPathUnits="userSpaceOnUse">
      <path
         inkscape:connector-curvature="0"
         id="path4530-7-8"
         d="M 0,6.5599514 H 27.999793 V 0 H 0 Z" />
    </clipPath>
    <clipPath
       id="clipEmfPath1-9"
       clipPathUnits="userSpaceOnUse">
      <path
         inkscape:connector-curvature="0"
         id="path4530-0"
         d="M 0,6.5599514 H 27.999793 V 0 H 0 Z" />
    </clipPath>
    <clipPath
       id="clipEmfPath1-9-6"
       clipPathUnits="userSpaceOnUse">
      <path
         inkscape:connector-curvature="0"
         id="path4530-0-3"
         d="M 0,6.5599514 H 27.999793 V 0 H 0 Z" />
    </clipPath>
    <clipPath
       id="clipEmfPath1-9-9"
       clipPathUnits="userSpaceOnUse">
      <path
         inkscape:connector-curvature="0"
         id="path4530-0-0"
         d="M 0,6.5599514 H 27.999793 V 0 H 0 Z" />
    </clipPath>
    <clipPath
       id="clipEmfPath1-9-6-1"
       clipPathUnits="userSpaceOnUse">
      <path
         inkscape:connector-curvature="0"
         id="path4530-0-3-3"
         d="M 0,6.5599514 H 27.999793 V 0 H 0 Z" />
    </clipPath>
    <clipPath
       id="clipEmfPath1-9-9-8"
       clipPathUnits="userSpaceOnUse">
      <path
         inkscape:connector-curvature="0"
         id="path4530-0-0-9"
         d="M 0,6.5599514 H 27.999793 V 0 H 0 Z" />
    </clipPath>
    <clipPath
       id="clipEmfPath1-9-8"
       clipPathUnits="userSpaceOnUse">
      <path
         inkscape:connector-curvature="0"
         id="path4530-0-1"
         d="M 0,6.5599514 H 27.999793 V 0 H 0 Z" />
    </clipPath>
    <clipPath
       id="clipEmfPath1-9-6-3"
       clipPathUnits="userSpaceOnUse">
      <path
         inkscape:connector-curvature="0"
         id="path4530-0-3-2"
         d="M 0,6.5599514 H 27.999793 V 0 H 0 Z" />
    </clipPath>
    <clipPath
       id="clipEmfPath1-9-9-85"
       clipPathUnits="userSpaceOnUse">
      <path
         inkscape:connector-curvature="0"
         id="path4530-0-0-4"
         d="M 0,6.5599514 H 27.999793 V 0 H 0 Z" />
    </clipPath>
    <clipPath
       id="clipEmfPath1-9-9-8-9"
       clipPathUnits="userSpaceOnUse">
      <path
         inkscape:connector-curvature="0"
         id="path4530-0-0-9-0"
         d="M 0,6.5599514 H 27.999793 V 0 H 0 Z" />
    </clipPath>
  </defs>
  <sodipodi:namedview
     pagecolor="#ffffff"
     bordercolor="#666666"
     borderopacity="1"
     objecttolerance="10"
     gridtolerance="10"
     guidetolerance="10"
     inkscape:pageopacity="0"
     inkscape:pageshadow="2"
     inkscape:window-width="1920"
     inkscape:window-height="1017"
     id="namedview24"
     showgrid="false"
     fit-margin-top="0"
     fit-margin-left="0"
     fit-margin-right="0"
     fit-margin-bottom="0"
     inkscape:zoom="5.6568543"
     inkscape:cx="71.709366"
     inkscape:cy="21.694034"
     inkscape:window-x="-8"
     inkscape:window-y="-8"
     inkscape:window-maximized="1"
     inkscape:current-layer="svg22"
     showguides="false" />
  <g
     id="#ffffffff"
     transform="translate(-30.267637,-280.85734)" />
  <path
     id="path4536"
     d="m 13.279902,5.4399597 -0.08,-0.079999 V 0.07999941 L 13.119903,0 H 11.999911 L 11.839912,0.07999941 V 6.479952 l 0.159999,0.079999 h 4.159969 l 0.08,-0.079999 V 5.5199591 l -0.08,-0.079999 z"
     clip-path="url(#clipEmfPath1)"
     style="fill:#c9e400;fill-opacity:1;fill-rule:nonzero;stroke:none"
     inkscape:connector-curvature="0"
     transform="matrix(3.6021992,0,0,3.6021992,-1.1696174,0.63773271)"
     sodipodi:nodetypes="ccccccccccccc" />
  <path
     id="path4536-8"
     d="M 20.079851,3.9999704 H 18.559863 L 18.399864,3.919971 19.279857,1.6799876 h 0.08 L 20.23985,3.919971 Z M 19.919852,0 h -1.199991 l -0.08,0.07999941 -2.159984,5.43995969 V 6.479952 l 0.08,0.079999 h 0.799994 l 0.159999,-0.079999 0.399997,-1.2799905 0.239998,-0.079999 h 2.319983 l 0.159999,0.079999 0.479997,1.2799905 0.08,0.079999 h 0.879993 l 0.08,-0.079999 V 5.5199591 L 19.999852,0.07999941 Z"
     clip-path="url(#clipEmfPath1-1)"
     style="fill:#c9e400;fill-opacity:1;fill-rule:nonzero;stroke:none"
     inkscape:connector-curvature="0"
     sodipodi:nodetypes="cccccccccccccccccccccccccc"
     transform="matrix(3.6032282,0,0,3.6032282,-0.91271928,0.63834639)" />
  <path
     style="fill:#c9e400;fill-opacity:1;fill-rule:nonzero;stroke:none;stroke-width:4.71079874"
     d="m 106.55029,0 c 0,0 -0.0539,0.006 -0.14209,0.006 -0.04,0.005 -0.1067,0.009 -0.16406,0.0132 -0.0667,0.009 -0.13669,0.0262 -0.2168,0.0395 -0.1549,0.0267 -0.32458,0.10696 -0.49951,0.19776 -0.1736,0.0935 -0.34409,0.22211 -0.49366,0.36767 -0.14554,0.1509 -0.27325,0.32007 -0.37207,0.49365 -0.0934,0.17493 -0.16143,0.34902 -0.19482,0.50391 -0.0267,0.0801 -0.0263,0.14564 -0.0395,0.2124 -0.01,0.0668 -0.0132,0.12 -0.0132,0.16407 -0.005,0.0935 -0.004,0.14502 -0.004,0.14502 v 6.53027 5.68067 0.004 c 0,0 -6e-4,0.0543 0.004,0.14648 0,0.0534 0.009,0.0934 0.0132,0.16554 0.009,0.0668 0.0129,0.13628 0.0395,0.2124 0.0267,0.15489 0.10701,0.32363 0.19776,0.5039 0.0934,0.16959 0.22211,0.33983 0.36767,0.49072 0.15089,0.1509 0.32005,0.27325 0.49366,0.37208 0.17359,0.0935 0.34911,0.15997 0.50536,0.19336 0.0801,0.0267 0.14564,0.0276 0.21241,0.041 0.0667,0.0134 0.12006,0.0132 0.16406,0.0132 0.0936,0.005 0.14502,0.004 0.14502,0.004 h 7.88672 4.32422 0.004 c 0,0 0.0402,6e-4 0.10693,-0.004 0.0267,0 0.08,6.1e-4 0.12012,-0.004 0.04,-0.009 0.0934,-0.0145 0.15088,-0.0278 0.22568,-0.0401 0.51877,-0.14044 0.77783,-0.30468 0.25372,-0.16024 0.4708,-0.38593 0.59766,-0.57422 0.13353,-0.18427 0.19482,-0.32519 0.19482,-0.32519 0,0 0.10676,-0.21176 0.15088,-0.44678 0.0267,-0.10682 0.0393,-0.23082 0.0527,-0.31494 0.005,-0.0935 0.004,-0.14649 0.004,-0.14649 V 14.3487 14.3355 3.0899 2.14361 2.13961 2.04591 c -0.005,-0.0668 -0.0131,-0.15112 -0.0264,-0.25927 -0.04,-0.21232 -0.12042,-0.491 -0.27393,-0.73536 -0.14556,-0.24437 -0.34444,-0.45667 -0.51269,-0.58887 -0.0801,-0.0668 -0.15925,-0.11964 -0.21533,-0.14502 -0.0534,-0.0267 -0.0806,-0.0527 -0.0806,-0.0527 v -0.006 c 0,0 -0.0804,-0.0535 -0.24462,-0.10693 -0.16425,-0.0668 -0.42927,-0.15088 -0.79248,-0.15088 H 106.5538 Z m -1.01367,4.63184 h 1.75488 v 2.84179 h 3.104 V 4.63184 h 1.75489 v 7.23779 H 110.3955 V 9.02198 h -3.104 v 2.84765 h -1.75488 z m 7.54248,0.006 h 3.00732 c 2.15212,0 3.71191,1.57141 3.71191,3.61524 0,2.04381 -1.55979,3.61669 -3.71191,3.61669 h -3.00732 z m 1.75927,1.54834 v 4.13525 h 1.09571 c 1.23211,0 2.04492,-0.86883 2.04492,-2.06835 0,-1.21116 -0.81281,-2.0669 -2.04492,-2.0669 z"
     id="path22838"
     inkscape:connector-curvature="0" />
  <path
     id="path4536-7"
     d="M 3.1999763,2.7999793 H 1.4399893 L 1.2799905,2.7199799 V 1.1999911 l 0.1599988,-0.079999 h 1.759987 c 0.5599958,0 0.8799935,0.1599988 0.8799935,0.8799935 0,0.6399952 -0.3199977,0.7999941 -0.8799935,0.7999937 z M 5.4399597,1.9999852 C 5.4399597,0.63999526 4.4799668,0 3.1999763,0 H 0.07999941 L 0,0.07999941 V 6.479952 L 0.07999941,6.559951 H 1.1999911 L 1.2799905,6.479952 V 3.9999704 L 1.4399893,3.919971 H 2.3199828 L 2.559981,3.9999704 4.3999674,6.479952 4.5599662,6.5599514 H 5.1199621 L 5.1999615,6.479952 V 5.5199591 L 3.9999704,3.919971 V 3.8399716 C 4.7999644,3.6799727 5.4399597,2.9599781 5.4399597,1.9999852"
     clip-path="url(#clipEmfPath1-6)"
     style="fill:#c9e400;fill-opacity:1;fill-rule:nonzero;stroke:none"
     inkscape:connector-curvature="0"
     sodipodi:nodetypes="sccccssscscccccccccccccccccc"
     transform="matrix(3.6026563,0,0,3.6026563,-0.0095365,0.63990576)" />
  <g
     id="g4652">
    <path
       transform="matrix(3.701874,0,0,3.701874,61.441126,0.23294435)"
       sodipodi:nodetypes="sssss"
       inkscape:connector-curvature="0"
       style="fill:#c9e400;fill-opacity:1;fill-rule:nonzero;stroke:none"
       clip-path="url(#clipEmfPath1-4-2)"
       d="m 8.8799342,3.2799757 c 0,-0.4799964 -0.399997,-0.8799935 -0.9599929,-0.8799935 -0.4799964,0 -0.8799934,0.3999971 -0.8799934,0.8799935 0,0.4799964 0.399997,0.8799935 0.8799934,0.8799935 0.5599959,0 0.9599929,-0.3999971 0.9599929,-0.8799935 z"
       id="path4536-6-8" />
    <g
       id="g4644">
      <path
         id="path4536-6"
         d="m 8.8799342,3.2799757 c 0,-0.4799964 -0.399997,-0.8799935 -0.9599929,-0.8799935 -0.4799964,0 -0.8799934,0.3999971 -0.8799934,0.8799935 0,0.4799964 0.399997,0.8799935 0.8799934,0.8799935 0.5599959,0 0.9599929,-0.3999971 0.9599929,-0.8799935 z"
         clip-path="url(#clipEmfPath1-4)"
         style="fill:#c9e400;fill-opacity:1;fill-rule:nonzero;stroke:none"
         inkscape:connector-curvature="0"
         sodipodi:nodetypes="sssss"
         transform="matrix(3.701874,0,0,3.701874,54.808501,9.3503204)" />
      <path
         id="path4536-6-5"
         d="m 8.8799342,3.2799757 c 0,-0.4799964 -0.399997,-0.8799935 -0.9599929,-0.8799935 -0.4799964,0 -0.8799934,0.3999971 -0.8799934,0.8799935 0,0.4799964 0.399997,0.8799935 0.8799934,0.8799935 0.5599959,0 0.9599929,-0.3999971 0.9599929,-0.8799935 z"
         clip-path="url(#clipEmfPath1-4-4)"
         style="fill:#c9e400;fill-opacity:1;fill-rule:nonzero;stroke:none"
         inkscape:connector-curvature="0"
         sodipodi:nodetypes="sssss"
         transform="matrix(3.701874,0,0,3.701874,68.073751,9.3503204)" />
      <path
         id="path4536-6-2"
         d="m 8.8799342,3.2799757 c 0,-0.4799964 -0.399997,-0.8799935 -0.9599929,-0.8799935 -0.4799964,0 -0.8799934,0.3999971 -0.8799934,0.8799935 0,0.4799964 0.399997,0.8799935 0.8799934,0.8799935 0.5599959,0 0.9599929,-0.3999971 0.9599929,-0.8799935 z"
         clip-path="url(#clipEmfPath1-4-5)"
         style="fill:#c9e400;fill-opacity:1;fill-rule:nonzero;stroke:none"
         inkscape:connector-curvature="0"
         sodipodi:nodetypes="sssss"
         transform="matrix(3.701874,0,0,3.701874,54.808501,-8.8844317)" />
      <path
         id="path4536-6-9"
         d="m 8.8799342,3.2799757 c 0,-0.4799964 -0.399997,-0.8799935 -0.9599929,-0.8799935 -0.4799964,0 -0.8799934,0.3999971 -0.8799934,0.8799935 0,0.4799964 0.399997,0.8799935 0.8799934,0.8799935 0.5599959,0 0.9599929,-0.3999971 0.9599929,-0.8799935 z"
         clip-path="url(#clipEmfPath1-4-9)"
         style="fill:#c9e400;fill-opacity:1;fill-rule:nonzero;stroke:none"
         inkscape:connector-curvature="0"
         sodipodi:nodetypes="sssss"
         transform="matrix(3.701874,0,0,3.701874,68.073751,-8.8844317)" />
    </g>
  </g>
  <path
     style="fill:#c9e400;fill-opacity:1;fill-rule:nonzero;stroke:none;stroke-width:3.60219932"
     d="m 22.783732,0.64275634 -0.577148,0.287109 V 23.983577 l 0.577148,0.288574 h 4.034179 11.655763 l 0.287109,-0.288574 V 20.526546 L 38.473674,20.237971 H 27.393595 l -0.287109,-0.288574 v -5.519532 l 0.282715,-0.284179 h 10.394531 l 0.287109,-0.288574 V 10.40008 L 37.783732,10.111506 H 27.389201 L 27.106486,9.8273273 v -4.863281 l 0.287109,-0.28711 h 11.080079 l 0.287109,-0.288574 V 0.92986534 l -0.287109,-0.287109 H 26.817911 Z"
     id="path4536-81-26"
     inkscape:connector-curvature="0" />
</svg>
